X: 2400
T: SAND JIG
%R: sand jig, hornpipe
B: James Kerr "Merry Melodies" v.2 p.45 #400
Z: 2016 John Chambers <jc:trillian.mit.edu>
M: C
L: 1/8
K: D
|:\
vA>vduf>ua g>af2 | A>df>a g2f2 |\
A>df>a g>af2 | (3efe (3ded c2B2 ::\
f>dc>d B>cA>B | G>AF>G E2e2 |\
f>dc>d B>cA>B | A>ge>c d2d2 :|
